fuse-blade.svg

<svg fill="currentColor" viewBox="0 0 24 24"><path d="M10 21H8l-2-2v-3h4zm8-5h-4v5h2l2-2zM3 3v1a1 1 0 0 0 1 1v9a1 1 0 0 0 1 1h14a1 1 0 0 0 1-1V5a1 1 0 0 0 1-1V3zm8.83 10V9.73H10l2.61-5.07v3.27h1.75z"/></svg>

<svg  viewBox="0 0 24 24" fill="currentColor"><path  d="M10,21H8L6,19V16H10V21M18,16H14V21H16L18,19V16M3,3V4A1,1 0 0,0 4,5V14A1,1 0 0,0 5,15H19A1,1 0 0,0 20,14V5H20A1,1 0 0,0 21,4V3H3M11.83,13V9.73H10L12.61,4.66V7.93H14.36L11.83,13Z"/></svg>
